X: 36
T: Missa Ecce ancilla domini / Sanctus
N: Derived from Ock1006d-Missa_Ecce_ancilla_domini-Sanctus.krn
C: Johannes Ockeghem
%%abc-version 2.0
%%abcx-abcm2ps-target-version 5.9.1 (29 Sep 2008)
%%abc-creator hum2abc beta
%%abcx-conversion-date 2019/02/17 07:26:14
%%abc-edited-by Jesse Rodin
%%abc-edited-by Will Watson 12/09/2012
%%abcx-initial-encoding-date 2015/12/06/
%%humdrum-veritas 3401907136
%%humdrum-veritas-data 3340091806
%%linebreak <none>
%%barnumbers 0
L: 1/4
M: 3/1
Q: 1/2=120
%%staves [1 2 3 4]
V: 1 clef=treble
V: 2 clef=treble-8
V: 3 clef=treble-8
V: 4 clef=bass
K: C
[V:1] G12 | 
[V:2] G6A2B4 | 
[V:3] z12 | 
[V:4] z12 | 
[V:1] G6A3GE2- | 
[V:2] c12 | 
[V:3] z12 | 
[V:4] z12 | 
[V:1] E2DCB,2C2D4 | 
[V:2] c3AG2c4B2 | 
[V:3] z12 | 
[V:4] z12 | 
[V:1] z2C2E2F2G4 | 
[V:2] c4z4B4 | 
[V:3] z12 | 
[V:4] z12 | 
[V:1] A4G4B2A2- | 
[V:2] A2c4G4c2 | 
[V:3] z12 | 
[V:4] z12 | 
[V:1] A2G2c2c4B2 | 
[V:2] d2e4c2d4 | 
[V:3] z12 | 
[V:4] z12 | 
[V:1] c4B2G2A3G | 
[V:2] c4z2c4d2 | 
[V:3] z12 | 
[V:4] z12 | 
[V:1] E4z2E2F2G2- | 
[V:2] e3cd2c2A2B2 | 
[V:3] z12 | 
[V:4] z12 | 
[V:1] G2E2D4G4 | 
[V:2] c4B2G4c2- | 
[V:3] z12 | 
[V:4] z12 | 
[V:1] A4B3GG2A2 | 
[V:2] c2d4e4c2- | 
[V:3] z12 | 
[V:4] z12 | 
[V:1] c4B2G2A2B2- | 
[V:2] c2d4B2c2B2 | 
[V:3] z12 | 
[V:4] z12 | 
[V:1] B2AGF2G2E2D2- | 
[V:2] G4d3Bc2BB- | 
[V:3] z12 | 
[V:4] z12 | 
[V:1] D2A4G4^F2 | 
[V:2] BA/G/F2G4A4 | 
[V:3] z12 | 
[V:4] z12 | 
[V:1] G8z4 | 
[V:2] G12 | 
[V:3] d8c4 | 
[V:4] G,8C,3D, | 
[V:1] G8F4 | 
[V:2] z2G4A2B4 | 
[V:3] B4d4d4 | 
[V:4] E,F,G,4E,2D,4 | 
[V:1] E4G8 | 
[V:2] c6B2c4 | 
[V:3] e12 | 
[V:4] C,3D,E,2E,4C,2 | 
[V:1] z2G2F2G2_B4 | 
[V:2] d3BA2B2G2F2- | 
[V:3] d12- | 
[V:4] B,,3C,D,2G,,4D,2- | 
[V:1] A6G4E2 | 
[V:2] F2D2A2B2G4 | 
[V:3] d8c4 | 
[V:4] D,E,F,4G,2E,4 | 
[V:1] F3GA2_B4A2 | 
[V:2] A4D6F2- | 
[V:3] d12 | 
[V:4] D,3E,F,2_B,,3C,D,2- | 
[V:1] F3GA2D2z2F2 | 
[V:2] FG_B2A2G2A4 | 
[V:3] d12 | 
[V:4] D,_B,,2A,,/G,,/F,,2G,,4F,,2 | 
[V:1] E2D4G3FE2 | 
[V:2] _B4G2D2z2_B2- | 
[V:3] G12 | 
[V:4] G,,12 | 
[V:1] D2E4D4^C2 | 
[V:2] B2c4A4G2 | 
[V:3] z12 | 
[V:4] _B,,2A,,2C,2D,2E,4 | 
[V:1] D12 | 
[V:2] A6_B4AG | 
[V:3] F12 | 
[V:4] D,12- | 
[V:1] z4D8 | 
[V:2] F8A4 | 
[V:3] A12 | 
[V:4] D,4D,8 | 
[V:1] E6C2E3F | 
[V:2] A8G4 | 
[V:3] c12 | 
[V:4] A,,8C,4 | 
[V:1] G6A2G2E2 | 
[V:2] E4z4G4- | 
[V:3] c12 | 
[V:4] C,3D,E,2F,2E,2C,2 | 
[V:1] D4G6FG | 
[V:2] G2=B3cd2G4 | 
[V:3] B12 | 
[V:4] z2G,3A,B,2C2D2 | 
[V:1] A3Bc2F3GA2- | 
[V:2] D2F2E2D2F4 | 
[V:3] A12 | 
[V:4] z2D,2C,2D,4C,B,, | 
[V:1] A2G2E4G4 | 
[V:2] z2E2A2G2E4 | 
[V:3] c12- | 
[V:4] A,,3B,,C,2C,3B,,A,,G,, | 
[V:1] A6G2c4 | 
[V:2] F4c3de4 | 
[V:3] c12 | 
[V:4] F,,2F,4E,D,C,3D, | 
[V:1] B6G2G4- | 
[V:2] e4d2e4dc | 
[V:3] G12 | 
[V:4] E,3D,B,,2C,4B,,A,, | 
[V:1] G2FED8 ||  
[V:2] B12 ||  
[V:3] G12 ||  
[V:4] G,,12 ||  
[V:1]  [K:C] [K:clef=treble][M:3/1]z12 | 
[V:2]  [K:C] [K:clef=treble-8][M:3/1]D6E2F2EF | 
[V:3]  [K:C] [K:clef=treble-8][M:3/1]z12 | 
[V:4]  [K:C] [K:clef=bass][M:3/1]z12 | 
[V:1] z12 | 
[V:2] G6F2G4 | 
[V:3] z12 | 
[V:4] G,,6A,,2B,,2A,,B,, | 
[V:1] z12 | 
[V:2] A4F2D2E4 | 
[V:3] z12 | 
[V:4] C,2A,,2D,2D,4^C,2 | 
[V:1] z12 | 
[V:2] D2F2G2A4B2 | 
[V:3] z12 | 
[V:4] D,4E,2F,4E,D, | 
[V:1] z12 | 
[V:2] c2B4A4^G2 | 
[V:3] z12 | 
[V:4] C,2D,2A,,4B,,4 | 
[V:1] z12 | 
[V:2] A4z4A4 | 
[V:3] z12 | 
[V:4] A,,3B,,C,2D,2C,2F,2- | 
[V:1] z12 | 
[V:2] A3Bc2d4B2 | 
[V:3] z12 | 
[V:4] F,2D,2E,2D,2F,2G,2 | 
[V:1] z12 | 
[V:2] A2c3BG2A4 | 
[V:3] z12 | 
[V:4] A,4D,2G,4^F,2 | 
[V:1] z12 | 
[V:2] G12 | 
[V:3] z12 | 
[V:4] G,8z4 | 
[V:1] E4F2G4C2 | 
[V:2] z12 | 
[V:3] z12 | 
[V:4] C,4D,2B,,2C,2A,,2 | 
[V:1] D2E4C2D4 | 
[V:2] z12 | 
[V:3] z12 | 
[V:4] G,,4C,4B,,4 | 
[V:1] C2E2F2G3CG2- | 
[V:2] c4A2G2c2d2 | 
[V:3] z12 | 
[V:4] C,4D,2E,3C,B,,2 | 
[V:1] G2A2B2c4B2 | 
[V:2] c2e4c2d4 | 
[V:3] z12 | 
[V:4] C,4z4G,,4 | 
[V:1] c4z4c4 | 
[V:2] c6B2A4 | 
[V:3] z12 | 
[V:4] C,3B,,A,,2G,,2F,,4 | 
[V:1] B4A6G2 | 
[V:2] G4F8 | 
[V:3] z12 | 
[V:4] G,,4D,8 | 
[V:1] B4G2A3GA2 | 
[V:2] G4c8 | 
[V:3] z12 | 
[V:4] G,,4z4z4 | 
[V:1] G2F2D4E4 | 
[V:2] B2A2d2d4^c2 | 
[V:3] z12 | 
[V:4] z12 | 
[V:1] D4z2D2E2F2 | 
[V:2] d2G2A2B2c2d2 | 
[V:3] z12 | 
[V:4] z12 | 
[V:1] G3AB2c2B2c2- | 
[V:2] B2e6d2c2 | 
[V:3] z12 | 
[V:4] z12 | 
[V:1] cBG2z2c3BB2- | 
[V:2] e3dB2z2e4 | 
[V:3] z12 | 
[V:4] z12 | 
[V:1] B2A2G2c2B2G2 | 
[V:2] d2c2e4d2B2 | 
[V:3] z12 | 
[V:4] z12 | 
[V:1] A2D4G4^F2 | 
[V:2] c2d2G4A4 | 
[V:3] z12 | 
[V:4] z12 | 
[V:1] G12 ||  
[V:2] G12 ||  
[V:3] z12 ||  
[V:4] z12 ||  
[V:1]  [K:C] [K:clef=treble][M:2/1]G8- | 
[V:2]  [K:C] [K:clef=treble-8][M:2/1]d8- | 
[V:3]  [K:C] [K:clef=treble-8][M:2/1]G8- | 
[V:4]  [K:C] [K:clef=bass][M:2/1]G,,8- | 
[V:1] G8 | 
[V:2] d4e4- | 
[V:3] G8 | 
[V:4] G,,4C,4- | 
[V:1] A4B4 | 
[V:2] e4d4 | 
[V:3] z4G4 | 
[V:4] C,4B,,4 | 
[V:1] c8 | 
[V:2] e4f4 | 
[V:3] A8 | 
[V:4] A,,4F,,4 | 
[V:1] B6G2 | 
[V:2] d6B2 | 
[V:3] G8 | 
[V:4] G,,8 | 
[V:1] A4G4 | 
[V:2] c4B4 | 
[V:3] F4G4- | 
[V:4] z8 | 
[V:1] z4G4 | 
[V:2] d6c2 | 
[V:3] G2E2D4 | 
[V:4] G,,8 | 
[V:1] F4D4 | 
[V:2] A8 | 
[V:3] z4D4 | 
[V:4] D,4F,4 | 
[V:1] E8 | 
[V:2] z8 | 
[V:3] G4A4 | 
[V:4] E,4C,4 | 
[V:1] D8 | 
[V:2] F4G4 | 
[V:3] B8 | 
[V:4] D,6C,2 | 
[V:1] z4E4 | 
[V:2] A8 | 
[V:3] c8 | 
[V:4] A,,8 | 
[V:1] F4D4- | 
[V:2] F6E2 | 
[V:3] A4F4 | 
[V:4] D,6C,2 | 
[V:1] D4C4- | 
[V:2] D4E4- | 
[V:3] G4A4 | 
[V:4] B,,4A,,4 | 
[V:1] C2D2E4 | 
[V:2] E4G4 | 
[V:3] G4c4- | 
[V:4] C,8 | 
[V:1] F8 | 
[V:2] F2F4E2 | 
[V:3] c4B4 | 
[V:4] D,8 | 
[V:1] E8 | 
[V:2] G8 | 
[V:3] c8 | 
[V:4] C,8 | 
[V:1] A4A4- | 
[V:2] z8 | 
[V:3] d4c4 | 
[V:4] F,8 | 
[V:1] A4G4 | 
[V:2] z8 | 
[V:3] B8 | 
[V:4] G,8 | 
[V:1] A8 | 
[V:2] F8- | 
[V:3] A8 | 
[V:4] z4D,4- | 
[V:1] B4c4- | 
[V:2] F4E4 | 
[V:3] z4A4- | 
[V:4] D,4C,4 | 
[V:1] c4B4 | 
[V:2] A4G4 | 
[V:3] A4B4 | 
[V:4] F,4G,4 | 
[V:1] G4A4- | 
[V:2] C4c4 | 
[V:3] c8 | 
[V:4] E,4F,4- | 
[V:1] A2G2G4- | 
[V:2] d4B4 | 
[V:3] B4G4 | 
[V:4] F,4G,4 | 
[V:1] G4^F4 | 
[V:2] A4z2d2- | 
[V:3] A8 | 
[V:4] D,8 | 
[V:1] G8 | 
[V:2] d2e2d2e2- | 
[V:3] G6E2 | 
[V:4] G,,4B,,2C,2 | 
[V:1] z4D3E | 
[V:2] e2c2B4 | 
[V:3] F4G4 | 
[V:4] A,,4G,,4 | 
[V:1] F2G3ED2 | 
[V:2] A2G2D4 | 
[V:3] D4G4 | 
[V:4] z2G,,4B,,2 | 
[V:1] C2F4E2- | 
[V:2] E2F3GA2- | 
[V:3] A2B4c2 | 
[V:4] C,2D,4C,2 | 
[V:1] E2D4^C2 | 
[V:2] A2B2G2E2 | 
[V:3] A2F2G4 | 
[V:4] D,4E,4 | 
[V:1] D4z4 | 
[V:2] F4D2E2 | 
[V:3] A4G2c2- | 
[V:4] D,4B,,2C,2 | 
[V:1] F4E4 | 
[V:2] F4G2A2- | 
[V:3] c2B2c4 | 
[V:4] D,4C,2A,,2- | 
[V:1] F2G4E2 | 
[V:2] A2G2E4 | 
[V:3] d4c2A2 | 
[V:4] A,,2B,,2C,4 | 
[V:1] D2E2F4 | 
[V:2] F2E2C2D2 | 
[V:3] B2c4B2 | 
[V:4] D,2C,2A,,2B,,2 | 
[V:1] E2C2D2E2- | 
[V:2] E4D2B,2 | 
[V:3] G2A4G2- | 
[V:4] C,4B,,2G,,2 | 
[V:1] E2C2B,3C | 
[V:2] C4D4 | 
[V:3] G2F2G4 | 
[V:4] A,,4G,,3A,, | 
[V:1] D2G,2z2D2 | 
[V:2] G3AB4 | 
[V:3] D2E2F2G2- | 
[V:4] B,,2C,2B,,2G,,2- | 
[V:1] E2D4G2 | 
[V:2] G2A2B2G2 | 
[V:3] G2D2G2B2 | 
[V:4] G,,2F,,2G,,4 | 
[V:1] A2^F4EF | 
[V:2] D4d4 | 
[V:3] A8 | 
[V:4] D,8 | 
[V:1] G8- | 
[V:2] z4d4 | 
[V:3] G8- | 
[V:4] G,,8- | 
[V:1] G8- | 
[V:2] B6c2 | 
[V:3] G8- | 
[V:4] G,,8- | 
[V:1] G8 ||  
[V:2] d8 ||  
[V:3] G8 ||  
[V:4] G,,8 ||  
[V:1]  [K:C] [K:clef=treble][M:2/1]G8- | 
[V:2]  [K:C] [K:clef=treble-8][M:2/1]c8- | 
[V:3]  [K:C] [K:clef=treble-8][M:2/1]z8 | 
[V:4]  [K:C] [K:clef=bass][M:2/1]z8 | 
[V:1] G4A4- | 
[V:2] c8- | 
[V:3] z8 | 
[V:4] z8 | 
[V:1] A2GFE4- | 
[V:2] c8 | 
[V:3] z8 | 
[V:4] z8 | 
[V:1] E4F4 | 
[V:2] A8 | 
[V:3] z8 | 
[V:4] z8 | 
[V:1] G8 | 
[V:2] B4c4- | 
[V:3] z8 | 
[V:4] z8 | 
[V:1] C4D4 | 
[V:2] c2BAG4 | 
[V:3] z8 | 
[V:4] z8 | 
[V:1] E6DC | 
[V:2] z2G4FE | 
[V:3] z8 | 
[V:4] z8 | 
[V:1] B,4C2E2 | 
[V:2] D4z2C2 | 
[V:3] z8 | 
[V:4] z8 | 
[V:1] D4z2C2- | 
[V:2] F2G2A4 | 
[V:3] z8 | 
[V:4] z8 | 
[V:1] C2F2G2A2- | 
[V:2] A4G2F2 | 
[V:3] z8 | 
[V:4] z8 | 
[V:1] AGG4E2 | 
[V:2] A2B2c4 | 
[V:3] z8 | 
[V:4] z8 | 
[V:1] F2E2G4 | 
[V:2] d2e4c2- | 
[V:3] z8 | 
[V:4] z8 | 
[V:1] C4B,2C2- | 
[V:2] c2C2D2C2 | 
[V:3] z8 | 
[V:4] z8 | 
[V:1] C2E2D4 | 
[V:2] c2c4B2 | 
[V:3] z8 | 
[V:4] z8 | 
[V:1] C8 | 
[V:2] c8 | 
[V:3] z8 | 
[V:4] z8 | 
[V:1] E6F2 | 
[V:2] z8 | 
[V:3] z8 | 
[V:4] z8 | 
[V:1] G2FGA4 | 
[V:2] z4A4- | 
[V:3] z8 | 
[V:4] z8 | 
[V:1] F2G4E2 | 
[V:2] A2B2c2Bc | 
[V:3] z8 | 
[V:4] z8 | 
[V:1] D4z2G2 | 
[V:2] d4B2c2- | 
[V:3] z8 | 
[V:4] z8 | 
[V:1] A2c2B3G | 
[V:2] c2A2G3E | 
[V:3] z8 | 
[V:4] z8 | 
[V:1] A2G4E2 | 
[V:2] F2E2C2c2 | 
[V:3] z8 | 
[V:4] z8 | 
[V:1] F2E2C4 | 
[V:2] d2e4c2 | 
[V:3] z8 | 
[V:4] z8 | 
[V:1] D2E4C2 | 
[V:2] B2G2A4 | 
[V:3] z8 | 
[V:4] z8 | 
[V:1] B,2C4A,2 | 
[V:2] G2E2F4 | 
[V:3] z8 | 
[V:4] z8 | 
[V:1] G,2C4A,2 | 
[V:2] E4A4 | 
[V:3] z8 | 
[V:4] z8 | 
[V:1] B,2C2D4 | 
[V:2] G2E2F2G2- | 
[V:3] z8 | 
[V:4] z8 | 
[V:1] G,4G3A | 
[V:2] G2C4c2- | 
[V:3] z8 | 
[V:4] z8 | 
[V:1] B2A2G2c2- | 
[V:2] cBc2e2c2 | 
[V:3] z8 | 
[V:4] z8 | 
[V:1] c2B2c4 | 
[V:2] d4c4- | 
[V:3] z8 | 
[V:4] z8 | 
[V:1] z2A4G2 | 
[V:2] c4z4 | 
[V:3] z8 | 
[V:4] z8 | 
[V:1] E4F2G2- | 
[V:2] e4d2B2- | 
[V:3] z8 | 
[V:4] z8 | 
[V:1] G2F2D4 | 
[V:2] B2c2d4 | 
[V:3] z8 | 
[V:4] z8 | 
[V:1] G3FF2E2- | 
[V:2] G4d3B | 
[V:3] z8 | 
[V:4] z8 | 
[V:1] E2D4C2- | 
[V:2] c2d2_B2AG | 
[V:3] z8 | 
[V:4] z8 | 
[V:1] C2B,2A,4 | 
[V:2] F2G4^F2 | 
[V:3] z8 | 
[V:4] z8 | 
[V:1] G,8- | 
[V:2] G6B2- | 
[V:3] z8 | 
[V:4] z8 | 
[V:1] G,4z4 | 
[V:2] Bcd2B2e2- | 
[V:3] z8 | 
[V:4] z8 | 
[V:1] G6E2 | 
[V:2] e2dcB2c2 | 
[V:3] z8 | 
[V:4] z8 | 
[V:1] F3GA2F2 | 
[V:2] d2B2A4 | 
[V:3] z8 | 
[V:4] z8 | 
[V:1] E4z2c2- | 
[V:2] z2e4c2 | 
[V:3] z8 | 
[V:4] z8 | 
[V:1] c2B2c4 | 
[V:2] d4c2e2- | 
[V:3] z8 | 
[V:4] z8 | 
[V:1] B4A2G2- | 
[V:2] e2d2c2B2 | 
[V:3] z8 | 
[V:4] z8 | 
[V:1] G2c2B2A2- | 
[V:2] e4d4 | 
[V:3] z8 | 
[V:4] z8 | 
[V:1] A2G4c2- | 
[V:2] c2B2e4 | 
[V:3] z8 | 
[V:4] z8 | 
[V:1] c2B2c4 | 
[V:2] c2d2c2e2- | 
[V:3] z8 | 
[V:4] z8 | 
[V:1] B2A3GG2- | 
[V:2] edc2B2G2 | 
[V:3] z8 | 
[V:4] z8 | 
[V:1] G2^F2G3=F | 
[V:2] A4G3A | 
[V:3] z8 | 
[V:4] z8 | 
[V:1] G2E2D4 | 
[V:2] B2c4B2 | 
[V:3] z8 | 
[V:4] z8 | 
[V:1] C8 ||  
[V:2] c8 ||  
[V:3] z8 ||  
[V:4] z8 ||  



